svg/system/refresh_1_fill.svg

<?xml version="1.0" encoding="UTF-8"?>
<svg width="24px" height="24px" viewBox="0 0 24 24" version="1.1" xmlns="http://www.w3.org/2000/svg" xmlns:xlink="http://www.w3.org/1999/xlink">
    <title>refresh_1_fill</title>
    <g id="页面-1" stroke="none" stroke-width="1" fill="none" fill-rule="evenodd">
        <g id="System" transform="translate(-1008.000000, -48.000000)">
            <g id="refresh_1_fill" transform="translate(1008.000000, 48.000000)">
                 <path d="M24,0 L24,24 L0,24 L0,0 L24,0 Z M12.5934901,23.257841 L12.5819402,23.2595131 L12.5108777,23.2950439 L12.4918791,23.2987469 L12.4918791,23.2987469 L12.4767152,23.2950439 L12.4056548,23.2595131 C12.3958229,23.2563662 12.3870493,23.2590235 12.3821421,23.2649074 L12.3780323,23.275831 L12.360941,23.7031097 L12.3658947,23.7234994 L12.3769048,23.7357139 L12.4804777,23.8096931 L12.4953491,23.8136134 L12.4953491,23.8136134 L12.5071152,23.8096931 L12.6106902,23.7357139 L12.6232938,23.7196733 L12.6232938,23.7196733 L12.6266527,23.7031097 L12.609561,23.275831 C12.6075724,23.2657013 12.6010112,23.2592993 12.5934901,23.257841 L12.5934901,23.257841 Z M12.8583906,23.1452862 L12.8445485,23.1473072 L12.6598443,23.2396597 L12.6498822,23.2499052 L12.6498822,23.2499052 L12.6471943,23.2611114 L12.6650943,23.6906389 L12.6699349,23.7034178 L12.6699349,23.7034178 L12.678386,23.7104931 L12.8793402,23.8032389 C12.8914285,23.8068999 12.9022333,23.8029875 12.9078286,23.7952264 L12.9118235,23.7811639 L12.8776777,23.1665331 C12.8752882,23.1545897 12.8674102,23.1470016 12.8583906,23.1452862 L12.8583906,23.1452862 Z M12.1430473,23.1473072 C12.1332178,23.1423925 12.1221763,23.1452606 12.1156365,23.1525954 L12.1099173,23.1665331 L12.0757714,23.7811639 C12.0751323,23.7926639 12.0828099,23.8018602 12.0926481,23.8045676 L12.108256,23.8032389 L12.3092106,23.7104931 L12.3186497,23.7024347 L12.3186497,23.7024347 L12.3225043,23.6906389 L12.340401,23.2611114 L12.337245,23.2485176 L12.337245,23.2485176 L12.3277531,23.2396597 L12.1430473,23.1473072 Z" id="MingCute" fill-rule="nonzero"></path>
                <path d="M10.7003,19.3744 C13.947,19.9469 17.0776,18.338 18.581,15.5956 C18.9792,14.8692 19.8909,14.6032 20.6174,15.0014 C21.3438,15.3996 21.6098,16.3114 21.2116,17.0378 C19.1091,20.8731 14.7302,23.1312 10.1794,22.3288 C4.46849,21.3218 0.655218,15.8759 1.6622,10.165 C2.66919,4.45413 8.1151,0.640862 13.826,1.64785 C18.1129,2.40374 21.3272,5.65997 22.2407,9.64677 C22.3415,10.0867 22.4143,10.5357 22.4575,10.9913 C22.5816,12.2995 21.1916,13.1492 20.0914,12.54 L17.271,10.9785 C15.7242,10.122 16.5044,7.75941 18.2571,7.99269 L18.3586,8.0062 C17.2701,6.27027 15.4793,4.98565 13.305,4.60227 C9.22584,3.88299 5.3359,6.60676 4.61662,10.686 C3.89735,14.7652 6.62111,18.6551 10.7003,19.3744 Z" id="路径" fill="#09244B"></path>
            </g>
        </g>
    </g>
</svg>

<svg xmlns="http://www.w3.org/2000/svg" width="24" height="24"><g fill="none" fill-rule="evenodd"><path d="M24 0v24H0V0h24ZM12.593 23.258l-.011.002-.071.035-.02.004-.014-.004-.071-.035c-.01-.004-.019-.001-.024.005l-.004.01-.017.428.005.02.01.013.104.074.015.004.012-.004.104-.074.012-.016.004-.017-.017-.427c-.002-.01-.009-.017-.017-.018Zm.265-.113-.013.002-.185.093-.01.01-.003.011.018.43.005.012.008.007.201.093c.012.004.023 0 .029-.008l.004-.014-.034-.614c-.003-.012-.01-.02-.02-.022Zm-.715.002a.023.023 0 0 0-.027.006l-.006.014-.034.614c0 .012.007.02.017.024l.015-.002.201-.093.01-.008.004-.011.017-.43-.003-.012-.01-.01-.184-.092Z"/><path fill="#09244B" d="M10.7 19.374a7.504 7.504 0 0 0 7.881-3.778 1.5 1.5 0 0 1 2.63 1.442c-2.102 3.835-6.48 6.093-11.032 5.29-5.71-1.006-9.524-6.452-8.517-12.163C2.67 4.455 8.115.641 13.826 1.648a10.503 10.503 0 0 1 8.631 9.343c.125 1.309-1.265 2.158-2.366 1.549l-2.82-1.561c-1.547-.857-.767-3.22.986-2.986l.102.013A7.5 7.5 0 1 0 10.7 19.374Z"/></g></svg>
